X:1
T:Ballade
T:Ballade
T:J. F. F. Burgmüller (1806-1874)
T:25 Etudes faciles
T:by Mutopia - Pubblico dominio
T:by Mutopia - Pubblico dominio
C:Johann Friedrich Franz Burgmüller (1806-1874)
Z:25 Etudes faciles
Z:by Mutopia - Pubblico dominio
%%score { 1 | 2 }
L:1/8
Q:1/4=120
M:3/8
K:Eb
V:1 treble nm="Piano" snm="Pno."
V:2 bass 
V:1
!p!"^Allegro con brio" .[CEG].[CEG][CEG] | .[CEG].[CEG][CEG] | .[CEG].[CEG][CEG] | %3
 .[CEG].[CEG][CEG] | .[CEG].[CEG][CEG] | .[CEG].[CEG][CEG] | .[CEG].[CEG].[CEG] | %7
 .[CE^F].[CEF][CEF] | .[CEG].[CEG].[CEG] | .[CE^F].[CEF][CEF] | .[CEG].[CEG][CEG] | %11
 .[CEG].[CEG][CEG] | .[CEG].[CEG][CEG] | .[CEG].[CEG][CEG] | .[CEG].[CEG].[CEG] | %15
 .[CE^F].[CEF][CEF] | .[CEG].[CEG].[CEG] | .[CE^F].[CEF][CEF] | .[CEG].[CEG] z | %19
"_cresc." .!1!!4![Gc].[Gc] z | .[G=B].[GB] z | .[Gf].[Gf] z | .[Ge].[Ge] z |!f! .!5!g.!3!e.!2!c | %24
 .!1!G.!3!E.!2!C | z3 | z3 | !^![EG]2 z | G,2 z | !^![DG]2 !fermata!z ||[K:C] (!1!G3 | c3 | !1!B3 | %33
 !5!g3) | (!1!G3 | !3!c3 | !1!B3 | a2 g) | (!4!g3 | f2 e |!>(! !4!g2 f | %41
"^poco rit." e2) (!1!d!>)! | !2!c3 | e2 d |"^animato"!>(! .c).!4!c.B | ._B.!1!A.!2!_A!>)! :| %46
!>(! (!3!_A2 G)!>)! |!>(! (_A2 G)!>)! | (!1!G!4!c).B | ._B.=A._A |!>(! (!3!_A2 G)!>)! | %51
!>(! (_A2 G)!>)! | (!4!_A3 |"_dim." F3 | !1!D3 | !5!G3) ||[K:Eb]!pp! .[CEG].[CEG][CEG] | %57
 .[CEG].[CEG][CEG] | .[CEG].[CEG][CEG] | .[CEG].[CEG][CEG] | .[CEG].[CEG][CEG] | %61
 .[CEG].[CEG][CEG] | .[CEG].[CEG][CEG] | .[CE^F].[CEF].[CEF] | .[CEG].[CEG][CEG] | %65
 .[CE^F].[CEF].[CEF] | .[CEG].[CEG][CEG] | .[CEG].[CEG][CEG] | .[CEG].[CEG][CEG] | %69
 .[CEG].[CEG][CEG] | .[CEG].[CEG][CEG] | .[CE^F].[CEF].[CEF] | .[CEG].[CEG].[CEG] | %73
 .[CE^F].[CEF][CEF] | .[CEG].[CEG] z |"_cresc." .!1!!4![Gc].[Gc] z | .[G=B].[GB] z | .[Gf].[Gf] z | %78
 .[Ge].[Ge] z |!f! .!5!g.!3!e.!2!c | .!1!G.!3!E.!2!C | z3 | z3 | !^![EG]2 z | !^!G,2 z | %85
 !^![DG]2 z |!f! (!4!C/=B,/C/G,/=A,/B,/ | C/=B,/C/G,/=A,/B,/ |"_dim." C/=B,/C/G,/=A,/B,/ | %89
 C/=B,/C/G,/=A,/B,/ | C2) z |!p! .[Gc].[Gc] z |"_dim." .[gc'].[gc'] z | %93
!8va(! .[g'c''].[g'c''] z!8va)! | [CE]3- | [CE]2 z |] %96
V:2
"^misterioso" z3 | z3 |!mp! (C,/=B,,/C,/G,,/=A,,/B,,/ | C,/=B,,/C,/G,,/=A,,/B,,/ | %4
 .!1!C,) z .!3!E, | .G, z .C, | =A,3- | A,2 .C, | =A,3- | A,2 z | %10
!mp! (!1!C,/=B,,/C,/G,,/=A,,/B,,/ | C,/=B,,/C,/G,,/=A,,/B,,/ | .C,) z !3!E, | .G, z .C, | =A,3- | %15
 A,2 .C, | =A,3- | A,2 z | G,G, z | !1!!2![E,G,][E,G,] z | [D,G,][D,G,] z | [=B,,G,][B,,G,] z | %22
 [C,G,][C,G,] z | z3 | z3 | .!1!G,.!2!E,.!3!C, | !5!G,,2 z | [G,C]2 z | G,,2 z | %29
 [G,=B,]2 !fermata!z ||[K:C] z"^dolce" [E,G,C][E,G,C] | z [E,G,C][E,G,C] | z [F,G,D][F,G,D] | %33
 z [F,G,D][F,G,D] | z [E,G,C][E,G,C] | z [E,G,C][E,G,C] | z [F,G,D][F,G,D] | z [F,G,D][F,G,D] | %38
 z [E,G,C][E,G,C] | [A,^C][A,C] z | [D,F,A,][D,F,A,] z | [F,A,D][F,A,D] z | [G,CE][G,CE] z | %43
 [G,B,F][G,B,F] z | [CE] z z | z3 :| z [G,B,D][G,B,D] | z [G,B,D][G,B,D] | [CE] z z | z3 | %50
 z [G,B,D][G,B,D] | z [G,B,D][G,B,D] | !2!_A,3 | !3!F,3 | !5!D,3 | !1!G,3 ||[K:Eb] C,2 z | z3 | %58
!mp! (!1!C,/=B,,/C,/G,,/=A,,/B,,/ | C,/=B,,/C,/G,,/=A,,/B,,/ | .!1!!1!C,) z .!3!E, | .G, z .C, | %62
 =A,3- | A,2 .C, | =A,3- | A,2 z |!mp! (!1!C,/=B,,/C,/G,,/=A,,/B,,/ | C,/=B,,/C,/G,,/=A,,/B,,/ | %68
 .!1!C,) z .!3!E, | .G, z .C, | =A,3- | A,2 .C, | =A,3- | A,2 .C, | G,G, z | !1!!2![E,G,][E,G,] z | %76
 [D,G,][D,G,] z | [=B,,G,][B,,G,] z | [C,G,][C,G,] z | z3 | z3 | .!1!G,.!2!E,.!3!C, | !5!G,,2 z | %83
 [G,C]2 z | G,,2 z | [G,=B,]2 z | C,/=B,,/C,/G,,/=A,,/B,,/ | C,/=B,,/C,/G,,/=A,,/B,,/ | %88
 C,/=B,,/C,/G,,/=A,,/B,,/ | C,/=B,,/C,/G,,/=A,,/B,,/ | C,2 z |[K:treble] .[CE].[CE] z | %92
 .[ce].[ce] z | .[c'e'].[c'e'] z |[K:bass] [C,G,]3- | [C,G,]2 z |] %96

